optimized/fill/coins.svg

<svg xmlns="http://www.w3.org/2000/svg" fill="currentColor" viewBox="0 0 24 24" aria-hidden="true">
  <path d="M14.005 2.003a8 8 0 013.292 15.293A8 8 0 116.711 6.71a8.003 8.003 0 017.294-4.707zm-3 7h-2v1a2.5 2.5 0 00-.164 4.995l.164.005h2l.09.008a.5.5 0 010 .984l-.09.008h-4v2h2v1h2v-1a2.5 2.5 0 00.164-4.995l-.164-.005h-2l-.09-.008a.5.5 0 010-.984l.09-.008h4v-2h-2v-1zm3-5A5.985 5.985 0 009.52 6.016a8 8 0 018.47 8.471 6 6 0 00-3.986-10.484z"/>
</svg>

<svg xmlns="http://www.w3.org/2000/svg" viewBox="0 0 24 24" aria-hidden="true">
  <path fill="none" d="M0 0h24v24H0z"/>
  <path d="M14 2a8 8 0 013.292 15.293A8 8 0 116.706 6.707 8.003 8.003 0 0114 2zm-3 7H9v1a2.5 2.5 0 00-.164 4.995L9 15h2l.09.008a.5.5 0 010 .984L11 16H7v2h2v1h2v-1a2.5 2.5 0 00.164-4.995L11 13H9l-.09-.008a.5.5 0 010-.984L9 12h4v-2h-2V9zm3-5a5.985 5.985 0 00-4.484 2.013 8 8 0 018.47 8.471A6 6 0 0014 4z"/>
</svg>
